X:36
T:Läilä Läis'n.
S:Efter Elisabet Olofsdotter, Flors i Burs.
M:3/4
L:1/8
K:Dm
A B|A2 G2 A2|F4 A2|c2 c2 d2|A4 B2|
w:Läi-lä Läi-s'n ha sat äi bäur-'n u spann, såt
A2 G2 A2|A2 G2 A2|G2 F2 G2|HA4 B2|A2 G2 FE|
w:väi-täs-tä mjöl-ki ör braus-ti ha rann. Gu trys-tä läil_
D2 A2 E G|F2 E2 ^C2|D4|]
w:tö-si, sum fikk sor-gi så uŋŋ!
